svgs/sharp-light/grate-droplet.svg

<svg xmlns="http://www.w3.org/2000/svg" viewBox="0 0 576 512"><!--! Font Awesome Pro 6.6.0 by @fontawesome - https://fontawesome.com License - https://fontawesome.com/license (Commercial License) Copyright 2024 Fonticons, Inc. --><path d="M32 64l384 0 0 143.1 32-49.1L448 64l0-32-32 0L32 32 0 32 0 64 0 448l0 32 32 0 312.2 0c-6.6-9.9-12-20.6-16.1-32L32 448 32 64zM384 256l0-144 0-16-16 0-72 0-72 0-72 0L80 96 64 96l0 16 0 144 0 144 0 16 16 0 72 0 72 0 72 0 24.9 0c-.6-5.3-.9-10.6-.9-16l0-2.1c0-4.6 .2-9.3 .7-13.9l-8.7 0 0-112 40 0 0 33.4 32-49.1 0-.2zM96 240l0-112 40 0 0 112-40 0zm72 0l0-112 40 0 0 112-40 0zm72 0l0-112 40 0 0 112-40 0zm72 0l0-112 40 0 0 112-40 0zm-32 32l0 112-40 0 0-112 40 0zm-72 0l0 112-40 0 0-112 40 0zm-72 0l0 112-40 0 0-112 40 0zm261.3 81.1L464 250.6l66.7 102.4c8.7 13.3 13.3 28.9 13.3 44.8l0 2.1c0 44.2-35.8 80-80 80s-80-35.8-80-80l0-2.1c0-15.9 4.6-31.5 13.3-44.8zm-26.8-17.5c-12.1 18.5-18.5 40.2-18.5 62.3l0 2.1c0 61.9 50.1 112 112 112s112-50.1 112-112l0-2.1c0-22.1-6.4-43.7-18.5-62.3L483.1 221.3 464 192l-19.1 29.3L370.5 335.6z"/></svg>

<svg xmlns="http://www.w3.org/2000/svg" viewBox="0 0 576 512"><!--! Font Awesome Pro 6.4.0 by @fontawesome - https://fontawesome.com License - https://fontawesome.com/license (Commercial License) Copyright 2023 Fonticons, Inc. --><path d="M32 64H416V207.1l32-49.1V64 32H416 32 0V64 448v32H32 344.2c-6.6-9.9-12-20.6-16.1-32H32V64zM384 256V112 96H368 296 224 152 80 64v16V256 400v16H80h72 72 72 24.9c-.6-5.3-.9-10.6-.9-16v-2.1c0-4.6 .2-9.3 .7-13.9H312V272h40v33.4l32-49.1V256zM96 240V128h40V240H96zm72 0V128h40V240H168zm72 0V128h40V240H240zm72 0V128h40V240H312zm-32 32V384H240V272h40zm-72 0V384H168V272h40zm-72 0V384H96V272h40zm261.3 81.1L464 250.6l66.7 102.4c8.7 13.3 13.3 28.9 13.3 44.8V400c0 44.2-35.8 80-80 80s-80-35.8-80-80v-2.1c0-15.9 4.6-31.5 13.3-44.8zm-26.8-17.5c-12.1 18.5-18.5 40.2-18.5 62.3V400c0 61.9 50.1 112 112 112s112-50.1 112-112v-2.1c0-22.1-6.4-43.7-18.5-62.3L483.1 221.3 464 192l-19.1 29.3L370.5 335.6z"/></svg>
